X:5
T:The Otter's Holt
S:Tommy Peoples, Donegal (fiddle)
D:Demo tape - 197?
R:Reel
Z:Bernie Stocks
N:As played
M:4/4
K:D
fB{d}BA FEFB | (3.A.A.AFB ABde | fB{d}BA FEFA | BdcA ~B2de |
fB{d}BA FEFB | (3.A.A.AFB ABde | fbaf ea{a}fe | dBAF ~B3c ||
~d2(3.e.e.d adfa | bfaf efdB | (3.e.e.dfd adfa | bfaf (3efedB |
~d2(3.e.e.d adfa | bfaf efde | fB{d}BA FEFA | BdcA ~B2de ||
<end>
<start>
